Newaita-dark/apps/64/krusader_user.svg

<?xml version="1.0" encoding="UTF-8"?>
<svg xmlns="http://www.w3.org/2000/svg" xmlns:xlink="http://www.w3.org/1999/xlink" width="64pt" height="64pt" viewBox="0 0 64 64" version="1.1">
<defs>
<linearGradient id="linear0" gradientUnits="userSpaceOnUse" x1="254" y1="233.5" x2="254" y2="254.666672" gradientTransform="matrix(0.125012,0,0,0.125012,-0.00000763012,26.87757)">
<stop offset="0" style="stop-color:rgb(0%,0%,0%);stop-opacity:0.27451;"/>
<stop offset="1" style="stop-color:rgb(0%,0%,0%);stop-opacity:0;"/>
</linearGradient>
<radialGradient id="radial0" gradientUnits="userSpaceOnUse" cx="450.908936" cy="189.579361" fx="450.908936" fy="189.579361" r="21.166656" gradientTransform="matrix(0.000000348341,-0.156265,-0.281277,-0.000000203077,106.24586,127.190665)">
<stop offset="0" style="stop-color:rgb(0%,0%,0%);stop-opacity:0.313725;"/>
<stop offset="0.222222" style="stop-color:rgb(0%,0%,0%);stop-opacity:0.27451;"/>
<stop offset="1" style="stop-color:rgb(0%,0%,0%);stop-opacity:0;"/>
</radialGradient>
<radialGradient id="radial1" gradientUnits="userSpaceOnUse" cx="450.908936" cy="189.579361" fx="450.908936" fy="189.579361" r="21.166656" gradientTransform="matrix(-0.000000348341,0.156265,0.281277,0.000000203077,-42.409041,-15.054958)">
<stop offset="0" style="stop-color:rgb(0%,0%,0%);stop-opacity:0.313725;"/>
<stop offset="0.222222" style="stop-color:rgb(0%,0%,0%);stop-opacity:0.27451;"/>
<stop offset="1" style="stop-color:rgb(0%,0%,0%);stop-opacity:0;"/>
</radialGradient>
<radialGradient id="radial2" gradientUnits="userSpaceOnUse" cx="450.908936" cy="189.579361" fx="450.908936" fy="189.579361" r="21.166656" gradientTransform="matrix(-0.000000348341,-0.156265,0.281277,-0.000000203077,-42.409041,127.190665)">
<stop offset="0" style="stop-color:rgb(0%,0%,0%);stop-opacity:0.313725;"/>
<stop offset="0.222222" style="stop-color:rgb(0%,0%,0%);stop-opacity:0.27451;"/>
<stop offset="1" style="stop-color:rgb(0%,0%,0%);stop-opacity:0;"/>
</radialGradient>
<radialGradient id="radial3" gradientUnits="userSpaceOnUse" cx="450.908936" cy="189.579361" fx="450.908936" fy="189.579361" r="21.166656" gradientTransform="matrix(0.000000348341,0.156265,-0.281277,0.000000203077,106.245857,-15.054959)">
<stop offset="0" style="stop-color:rgb(0%,0%,0%);stop-opacity:0.313725;"/>
<stop offset="0.222222" style="stop-color:rgb(0%,0%,0%);stop-opacity:0.27451;"/>
<stop offset="1" style="stop-color:rgb(0%,0%,0%);stop-opacity:0;"/>
</radialGradient>
<linearGradient id="linear1" gradientUnits="userSpaceOnUse" x1="254" y1="233.5" x2="254" y2="-168.666672" gradientTransform="matrix(0.125012,0,0,0.125012,0,26.877566)">
<stop offset="0" style="stop-color:rgb(47.058824%,56.470588%,61.176471%);stop-opacity:1;"/>
<stop offset="1" style="stop-color:rgb(56.470588%,64.313725%,68.235294%);stop-opacity:1;"/>
</linearGradient>
<linearGradient id="linear2" gradientUnits="userSpaceOnUse" x1="148.166672" y1="-168.666672" x2="148.166672" y2="233.5" >
<stop offset="0" style="stop-color:rgb(62.352941%,65.882353%,85.490196%);stop-opacity:1;"/>
<stop offset="1" style="stop-color:rgb(47.45098%,52.54902%,79.607843%);stop-opacity:1;"/>
</linearGradient>
<linearGradient id="linear3" gradientUnits="userSpaceOnUse" x1="148.166656" y1="-168.666672" x2="148.166656" y2="233.5" gradientTransform="matrix(1,0,0,1,211.666687,0)">
<stop offset="0" style="stop-color:rgb(62.352941%,65.882353%,85.490196%);stop-opacity:1;"/>
<stop offset="1" style="stop-color:rgb(47.45098%,52.54902%,79.607843%);stop-opacity:1;"/>
</linearGradient>
<linearGradient id="linear4" gradientUnits="userSpaceOnUse" x1="254" y1="-168.666656" x2="254" y2="233.5" >
<stop offset="0" style="stop-color:rgb(62.352941%,65.882353%,85.490196%);stop-opacity:1;"/>
<stop offset="1" style="stop-color:rgb(47.45098%,52.54902%,79.607843%);stop-opacity:1;"/>
</linearGradient>
<linearGradient id="linear5" gradientUnits="userSpaceOnUse" x1="148.166672" y1="42.999996" x2="148.166672" y2="-84.000008" gradientTransform="matrix(1,0,0,1,-0.00000254313,0.0000054196)">
<stop offset="0" style="stop-color:rgb(84.313725%,80%,78.431373%);stop-opacity:1;"/>
<stop offset="1" style="stop-color:rgb(93.72549%,92.156863%,91.372549%);stop-opacity:1;"/>
</linearGradient>
<linearGradient id="linear6" gradientUnits="userSpaceOnUse" x1="148.166672" y1="-9.916669" x2="148.166672" y2="-136.916672" gradientTransform="matrix(1,0,0,1,-0.00000254313,52.916668)">
<stop offset="0" style="stop-color:rgb(84.313725%,80%,78.431373%);stop-opacity:1;"/>
<stop offset="1" style="stop-color:rgb(93.72549%,92.156863%,91.372549%);stop-opacity:1;"/>
</linearGradient>
<linearGradient id="linear7" gradientUnits="userSpaceOnUse" x1="148.166672" y1="42.999996" x2="148.166672" y2="-84" gradientTransform="matrix(1,0,0,1,211.666656,0.0000054196)">
<stop offset="0" style="stop-color:rgb(84.313725%,80%,78.431373%);stop-opacity:1;"/>
<stop offset="1" style="stop-color:rgb(93.72549%,92.156863%,91.372549%);stop-opacity:1;"/>
</linearGradient>
<linearGradient id="linear8" gradientUnits="userSpaceOnUse" x1="148.166672" y1="-9.916668" x2="148.166672" y2="-136.916672" gradientTransform="matrix(1,0,0,1,211.666656,52.916668)">
<stop offset="0" style="stop-color:rgb(84.313725%,80%,78.431373%);stop-opacity:1;"/>
<stop offset="1" style="stop-color:rgb(93.72549%,92.156863%,91.372549%);stop-opacity:1;"/>
</linearGradient>
<linearGradient id="linear9" gradientUnits="userSpaceOnUse" x1="148.166672" y1="-62.833332" x2="148.166672" y2="-189.833344" gradientTransform="matrix(1,0,0,1,-0.00000254313,105.833344)">
<stop offset="0" style="stop-color:rgb(84.313725%,80%,78.431373%);stop-opacity:1;"/>
<stop offset="1" style="stop-color:rgb(93.72549%,92.156863%,91.372549%);stop-opacity:1;"/>
</linearGradient>
<linearGradient id="linear10" gradientUnits="userSpaceOnUse" x1="148.166672" y1="-62.833332" x2="148.166672" y2="-189.833328" gradientTransform="matrix(1,0,0,1,211.666656,105.833328)">
<stop offset="0" style="stop-color:rgb(84.313725%,80%,78.431373%);stop-opacity:1;"/>
<stop offset="1" style="stop-color:rgb(93.72549%,92.156863%,91.372549%);stop-opacity:1;"/>
</linearGradient>
<linearGradient id="linear11" gradientUnits="userSpaceOnUse" x1="100.541656" y1="212.333328" x2="100.541656" y2="127.666656" >
<stop offset="0" style="stop-color:rgb(84.313725%,80%,78.431373%);stop-opacity:1;"/>
<stop offset="1" style="stop-color:rgb(93.72549%,92.156863%,91.372549%);stop-opacity:1;"/>
</linearGradient>
</defs>
<g id="surface1">
<path style=" stroke:none;fill-rule:nonzero;fill:url(#linear0);" d="M 10.253906 56.066406 L 53.582031 56.066406 L 53.582031 58.714844 L 10.253906 58.714844 Z M 10.253906 56.066406 "/>
<path style=" stroke:none;fill-rule:nonzero;fill:url(#radial0);" d="M 53.582031 56.066406 L 58.875 56.066406 L 58.875 53.421875 L 53.582031 53.421875 Z M 53.582031 56.066406 "/>
<path style=" stroke:none;fill-rule:nonzero;fill:url(#radial1);" d="M 10.253906 56.066406 L 4.960938 56.066406 L 4.960938 58.714844 L 10.253906 58.714844 Z M 10.253906 56.066406 "/>
<path style=" stroke:none;fill-rule:nonzero;fill:url(#radial2);" d="M 10.253906 56.066406 L 4.960938 56.066406 L 4.960938 53.421875 L 10.253906 53.421875 Z M 10.253906 56.066406 "/>
<path style=" stroke:none;fill-rule:nonzero;fill:url(#radial3);" d="M 53.582031 56.066406 L 58.875 56.066406 L 58.875 58.714844 L 53.582031 58.714844 Z M 53.582031 56.066406 "/>
<path style=" stroke:none;fill-rule:nonzero;fill:url(#linear1);" d="M 5.953125 5.792969 L 57.550781 5.792969 C 58.648438 5.792969 59.535156 6.679688 59.535156 7.777344 L 59.535156 54.082031 C 59.535156 55.179688 58.648438 56.066406 57.550781 56.066406 L 5.953125 56.066406 C 4.859375 56.066406 3.96875 55.179688 3.96875 54.082031 L 3.96875 7.777344 C 3.96875 6.679688 4.859375 5.792969 5.953125 5.792969 Z M 5.953125 5.792969 "/>
<path style=" stroke:none;fill-rule:nonzero;fill:rgb(100%,100%,100%);fill-opacity:0.392157;" d="M 5.953125 5.792969 C 4.855469 5.792969 3.96875 6.675781 3.96875 7.777344 L 3.96875 8.4375 C 3.96875 7.339844 4.855469 6.453125 5.953125 6.453125 L 57.550781 6.453125 C 58.652344 6.453125 59.535156 7.339844 59.535156 8.4375 L 59.535156 7.777344 C 59.535156 6.675781 58.652344 5.792969 57.550781 5.792969 Z M 5.953125 5.792969 "/>
<path style=" stroke:none;fill-rule:nonzero;fill:rgb(0%,0%,0%);fill-opacity:0.235294;" d="M 5.953125 56.066406 C 4.855469 56.066406 3.96875 55.183594 3.96875 54.082031 L 3.96875 53.421875 C 3.96875 54.519531 4.855469 55.40625 5.953125 55.40625 L 57.550781 55.40625 C 58.652344 55.40625 59.535156 54.519531 59.535156 53.421875 L 59.535156 54.082031 C 59.535156 55.183594 58.652344 56.066406 57.550781 56.066406 Z M 5.953125 56.066406 "/>
<path style=" stroke:none;fill-rule:nonzero;fill:rgb(12.941177%,12.941177%,12.941177%);fill-opacity:1;" d="M 5.953125 5.605469 C 4.753906 5.605469 3.78125 6.578125 3.78125 7.777344 L 3.78125 54.082031 C 3.78125 55.285156 4.753906 56.253906 5.953125 56.253906 L 57.550781 56.253906 C 58.753906 56.253906 59.722656 55.285156 59.722656 54.082031 L 59.722656 7.777344 C 59.722656 6.578125 58.753906 5.605469 57.550781 5.605469 Z M 5.953125 5.980469 L 57.550781 5.980469 C 58.550781 5.980469 59.347656 6.777344 59.347656 7.777344 L 59.347656 54.082031 C 59.347656 55.082031 58.550781 55.878906 57.550781 55.878906 L 5.953125 55.878906 C 4.953125 55.878906 4.15625 55.082031 4.15625 54.082031 L 4.15625 7.777344 C 4.15625 6.777344 4.953125 5.980469 5.953125 5.980469 Z M 5.953125 5.980469 "/>
<path style="fill-rule:nonzero;fill:url(#linear2);stroke-width:3;stroke-linecap:round;stroke-linejoin:round;stroke:rgb(12.941177%,12.941177%,12.941177%);stroke-opacity:1;stroke-miterlimit:4;" d="M 63.493937 -115.759477 L 232.821517 -115.759477 C 238.664709 -115.759477 243.414255 -111.009931 243.414255 -105.166739 L 243.414255 95.90781 C 243.414255 101.751002 238.664709 106.500548 232.821517 106.500548 L 63.493937 106.500548 C 57.650745 106.500548 52.901198 101.751002 52.901198 95.90781 L 52.901198 -105.166739 C 52.901198 -111.009931 57.650745 -115.759477 63.493937 -115.759477 Z M 63.493937 -115.759477 " transform="matrix(0.125012,0,0,0.125012,0,26.877566)"/>
<path style="fill-rule:nonzero;fill:url(#linear3);stroke-width:3;stroke-linecap:round;stroke-linejoin:round;stroke:rgb(12.941177%,12.941177%,12.941177%);stroke-opacity:1;stroke-miterlimit:4;" d="M 275.161223 -115.759477 L 444.488803 -115.759477 C 450.331995 -115.759477 455.081542 -111.009931 455.081542 -105.166739 L 455.081542 95.90781 C 455.081542 101.751002 450.331995 106.500548 444.488803 106.500548 L 275.161223 106.500548 C 269.318031 106.500548 264.568485 101.751002 264.568485 95.90781 L 264.568485 -105.166739 C 264.568485 -111.009931 269.318031 -115.759477 275.161223 -115.759477 Z M 275.161223 -115.759477 " transform="matrix(0.125012,0,0,0.125012,0,26.877566)"/>
<path style="fill-rule:nonzero;fill:url(#linear4);stroke-width:3;stroke-linecap:round;stroke-linejoin:round;stroke:rgb(12.941177%,12.941177%,12.941177%);stroke-opacity:1;stroke-miterlimit:4;" d="M 63.493937 127.654778 L 444.488803 127.654778 C 450.331995 127.654778 455.081542 132.404325 455.081542 138.247517 L 455.081542 201.741453 C 455.081542 207.584645 450.331995 212.334192 444.488803 212.334192 L 63.493937 212.334192 C 57.650745 212.334192 52.901198 207.584645 52.901198 201.741453 L 52.901198 138.247517 C 52.901198 132.404325 57.650745 127.654778 63.493937 127.654778 Z M 63.493937 127.654778 " transform="matrix(0.125012,0,0,0.125012,0,26.877566)"/>
<path style="fill-rule:nonzero;fill:url(#linear5);stroke-width:3;stroke-linecap:round;stroke-linejoin:round;stroke:rgb(12.941177%,12.941177%,12.941177%);stroke-opacity:1;stroke-miterlimit:4;" d="M 84.679414 -84.012509 L 211.667287 -84.012509 C 217.510479 -84.012509 222.260025 -79.262962 222.260025 -73.41977 C 222.260025 -67.576578 217.510479 -62.827032 211.667287 -62.827032 L 84.679414 -62.827032 C 78.836222 -62.827032 74.086675 -67.576578 74.086675 -73.41977 C 74.086675 -79.262962 78.836222 -84.012509 84.679414 -84.012509 Z M 84.679414 -84.012509 " transform="matrix(0.125012,0,0,0.125012,0,26.877566)"/>
<path style="fill-rule:nonzero;fill:url(#linear6);stroke-width:3;stroke-linecap:round;stroke-linejoin:round;stroke:rgb(12.941177%,12.941177%,12.941177%);stroke-opacity:1;stroke-miterlimit:4;" d="M 84.679414 -31.080063 L 211.667287 -31.080063 C 217.510479 -31.080063 222.260025 -26.330517 222.260025 -20.487325 C 222.260025 -14.644133 217.510479 -9.925834 211.667287 -9.925834 L 84.679414 -9.925834 C 78.836222 -9.925834 74.086675 -14.644133 74.086675 -20.487325 C 74.086675 -26.330517 78.836222 -31.080063 84.679414 -31.080063 Z M 84.679414 -31.080063 " transform="matrix(0.125012,0,0,0.125012,0,26.877566)"/>
<path style="fill-rule:nonzero;fill:url(#linear7);stroke-width:3;stroke-linecap:round;stroke-linejoin:round;stroke:rgb(12.941177%,12.941177%,12.941177%);stroke-opacity:1;stroke-miterlimit:4;" d="M 296.3467 -84.012509 L 423.334574 -84.012509 C 429.177766 -84.012509 433.927312 -79.262962 433.927312 -73.41977 C 433.927312 -67.576578 429.177766 -62.827032 423.334574 -62.827032 L 296.3467 -62.827032 C 290.503508 -62.827032 285.753962 -67.576578 285.753962 -73.41977 C 285.753962 -79.262962 290.503508 -84.012509 296.3467 -84.012509 Z M 296.3467 -84.012509 " transform="matrix(0.125012,0,0,0.125012,0,26.877566)"/>
<path style="fill-rule:nonzero;fill:url(#linear8);stroke-width:3;stroke-linecap:round;stroke-linejoin:round;stroke:rgb(12.941177%,12.941177%,12.941177%);stroke-opacity:1;stroke-miterlimit:4;" d="M 296.3467 -31.080063 L 423.334574 -31.080063 C 429.177766 -31.080063 433.927312 -26.330517 433.927312 -20.487325 C 433.927312 -14.644133 429.177766 -9.925834 423.334574 -9.925834 L 296.3467 -9.925834 C 290.503508 -9.925834 285.753962 -14.644133 285.753962 -20.487325 C 285.753962 -26.330517 290.503508 -31.080063 296.3467 -31.080063 Z M 296.3467 -31.080063 " transform="matrix(0.125012,0,0,0.125012,0,26.877566)"/>
<path style="fill-rule:nonzero;fill:url(#linear9);stroke-width:3;stroke-linecap:round;stroke-linejoin:round;stroke:rgb(12.941177%,12.941177%,12.941177%);stroke-opacity:1;stroke-miterlimit:4;" d="M 84.679414 21.821135 L 211.667287 21.821135 C 217.510479 21.821135 222.260025 26.570681 222.260025 32.413873 C 222.260025 38.257065 217.510479 43.006612 211.667287 43.006612 L 84.679414 43.006612 C 78.836222 43.006612 74.086675 38.257065 74.086675 32.413873 C 74.086675 26.570681 78.836222 21.821135 84.679414 21.821135 Z M 84.679414 21.821135 " transform="matrix(0.125012,0,0,0.125012,0,26.877566)"/>
<path style="fill-rule:nonzero;fill:url(#linear10);stroke-width:3;stroke-linecap:round;stroke-linejoin:round;stroke:rgb(12.941177%,12.941177%,12.941177%);stroke-opacity:1;stroke-miterlimit:4;" d="M 296.3467 21.821135 L 423.334574 21.821135 C 429.177766 21.821135 433.927312 26.570681 433.927312 32.413873 C 433.927312 38.257065 429.177766 43.006612 423.334574 43.006612 L 296.3467 43.006612 C 290.503508 43.006612 285.753962 38.257065 285.753962 32.413873 C 285.753962 26.570681 290.503508 21.821135 296.3467 21.821135 Z M 296.3467 21.821135 " transform="matrix(0.125012,0,0,0.125012,0,26.877566)"/>
<path style="fill-rule:nonzero;fill:url(#linear11);stroke-width:3;stroke-linecap:round;stroke-linejoin:round;stroke:rgb(12.941177%,12.941177%,12.941177%);stroke-opacity:1;stroke-miterlimit:4;" d="M 87.772868 192.461089 C 91.897474 196.585696 98.584336 196.585696 102.740189 192.461089 L 117.707509 177.493769 C 121.832116 173.337916 121.832116 166.651054 117.707509 162.526448 L 102.740189 147.559127 C 98.584336 143.403274 91.897474 143.403274 87.772868 147.559127 C 83.617015 151.683733 83.617015 158.370595 87.772868 162.526448 L 95.240905 169.994485 L 87.772868 177.493769 C 83.617015 181.618375 83.617015 188.305236 87.772868 192.461089 Z M 87.772868 192.461089 " transform="matrix(0.125012,0,0,0.125012,0,26.877566)"/>
</g>
</svg>

<svg xmlns="http://www.w3.org/2000/svg" width="64pt" height="64pt" viewBox="0 0 64 64"><defs><linearGradient id="a" gradientUnits="userSpaceOnUse" x1="254" y1="233.5" x2="254" y2="254.667" gradientTransform="translate(0 26.878) scale(.12501)"><stop offset="0" stop-opacity=".275"/><stop offset="1" stop-opacity="0"/></linearGradient><radialGradient id="b" gradientUnits="userSpaceOnUse" cx="450.909" cy="189.579" fx="450.909" fy="189.579" r="21.167" gradientTransform="matrix(0 -.15626 -.28128 0 106.246 127.19)"><stop offset="0" stop-opacity=".314"/><stop offset=".222" stop-opacity=".275"/><stop offset="1" stop-opacity="0"/></radialGradient><radialGradient id="c" gradientUnits="userSpaceOnUse" cx="450.909" cy="189.579" fx="450.909" fy="189.579" r="21.167" gradientTransform="matrix(0 .15626 .28128 0 -42.409 -15.055)"><stop offset="0" stop-opacity=".314"/><stop offset=".222" stop-opacity=".275"/><stop offset="1" stop-opacity="0"/></radialGradient><radialGradient id="d" gradientUnits="userSpaceOnUse" cx="450.909" cy="189.579" fx="450.909" fy="189.579" r="21.167" gradientTransform="matrix(0 -.15626 .28128 0 -42.409 127.19)"><stop offset="0" stop-opacity=".314"/><stop offset=".222" stop-opacity=".275"/><stop offset="1" stop-opacity="0"/></radialGradient><radialGradient id="e" gradientUnits="userSpaceOnUse" cx="450.909" cy="189.579" fx="450.909" fy="189.579" r="21.167" gradientTransform="matrix(0 .15626 -.28128 0 106.246 -15.055)"><stop offset="0" stop-opacity=".314"/><stop offset=".222" stop-opacity=".275"/><stop offset="1" stop-opacity="0"/></radialGradient><linearGradient id="f" gradientUnits="userSpaceOnUse" x1="254" y1="233.5" x2="254" y2="-168.667" gradientTransform="translate(0 26.878) scale(.12501)"><stop offset="0" stop-color="#78909c"/><stop offset="1" stop-color="#90a4ae"/></linearGradient><linearGradient id="g" gradientUnits="userSpaceOnUse" x1="148.167" y1="-168.667" x2="148.167" y2="233.5"><stop offset="0" stop-color="#9fa8da"/><stop offset="1" stop-color="#7986cb"/></linearGradient><linearGradient id="h" gradientUnits="userSpaceOnUse" x1="148.167" y1="-168.667" x2="148.167" y2="233.5" gradientTransform="translate(211.667)"><stop offset="0" stop-color="#9fa8da"/><stop offset="1" stop-color="#7986cb"/></linearGradient><linearGradient id="i" gradientUnits="userSpaceOnUse" x1="254" y1="-168.667" x2="254" y2="233.5"><stop offset="0" stop-color="#9fa8da"/><stop offset="1" stop-color="#7986cb"/></linearGradient><linearGradient id="j" gradientUnits="userSpaceOnUse" x1="148.167" y1="43" x2="148.167" y2="-84"><stop offset="0" stop-color="#d7ccc8"/><stop offset="1" stop-color="#efebe9"/></linearGradient><linearGradient id="k" gradientUnits="userSpaceOnUse" x1="148.167" y1="-9.917" x2="148.167" y2="-136.917" gradientTransform="translate(0 52.917)"><stop offset="0" stop-color="#d7ccc8"/><stop offset="1" stop-color="#efebe9"/></linearGradient><linearGradient id="l" gradientUnits="userSpaceOnUse" x1="148.167" y1="43" x2="148.167" y2="-84" gradientTransform="translate(211.667)"><stop offset="0" stop-color="#d7ccc8"/><stop offset="1" stop-color="#efebe9"/></linearGradient><linearGradient id="m" gradientUnits="userSpaceOnUse" x1="148.167" y1="-9.917" x2="148.167" y2="-136.917" gradientTransform="translate(211.667 52.917)"><stop offset="0" stop-color="#d7ccc8"/><stop offset="1" stop-color="#efebe9"/></linearGradient><linearGradient id="n" gradientUnits="userSpaceOnUse" x1="148.167" y1="-62.833" x2="148.167" y2="-189.833" gradientTransform="translate(0 105.833)"><stop offset="0" stop-color="#d7ccc8"/><stop offset="1" stop-color="#efebe9"/></linearGradient><linearGradient id="o" gradientUnits="userSpaceOnUse" x1="148.167" y1="-62.833" x2="148.167" y2="-189.833" gradientTransform="translate(211.667 105.833)"><stop offset="0" stop-color="#d7ccc8"/><stop offset="1" stop-color="#efebe9"/></linearGradient><linearGradient id="p" gradientUnits="userSpaceOnUse" x1="100.542" y1="212.333" x2="100.542" y2="127.667"><stop offset="0" stop-color="#d7ccc8"/><stop offset="1" stop-color="#efebe9"/></linearGradient></defs><path d="M10.254 56.066h43.328v2.649H10.254zm0 0" fill="url(#a)"/><path d="M53.582 56.066h5.293v-2.644h-5.293zm0 0" fill="url(#b)"/><path d="M10.254 56.066H4.96v2.649h5.293zm0 0" fill="url(#c)"/><path d="M10.254 56.066H4.96v-2.644h5.293zm0 0" fill="url(#d)"/><path d="M53.582 56.066h5.293v2.649h-5.293zm0 0" fill="url(#e)"/><path d="M5.953 5.793h51.598c1.097 0 1.984.887 1.984 1.984v46.305a1.982 1.982 0 0 1-1.984 1.984H5.953a1.985 1.985 0 0 1-1.984-1.984V7.777c0-1.097.89-1.984 1.984-1.984zm0 0" fill="url(#f)"/><path d="M5.953 5.793A1.98 1.98 0 0 0 3.97 7.777v.66c0-1.097.886-1.984 1.984-1.984h51.598a1.98 1.98 0 0 1 1.984 1.984v-.66a1.977 1.977 0 0 0-1.984-1.984zm0 0" fill="#fff" fill-opacity=".392"/><path d="M5.953 56.066a1.98 1.98 0 0 1-1.984-1.984v-.66c0 1.098.886 1.984 1.984 1.984h51.598a1.98 1.98 0 0 0 1.984-1.984v.66a1.977 1.977 0 0 1-1.984 1.984zm0 0" fill-opacity=".235"/><path d="M5.953 5.605c-1.2 0-2.172.973-2.172 2.172v46.305a2.17 2.17 0 0 0 2.172 2.172h51.598a2.167 2.167 0 0 0 2.172-2.172V7.777a2.17 2.17 0 0 0-2.172-2.172zm0 .375h51.598c1 0 1.797.797 1.797 1.797v46.305c0 1-.797 1.797-1.797 1.797H5.953c-1 0-1.797-.797-1.797-1.797V7.777c0-1 .797-1.797 1.797-1.797zm0 0" fill="#212121"/><path d="M63.494-115.76h169.328c5.843 0 10.592 4.75 10.592 10.593V95.908c0 5.843-4.75 10.593-10.592 10.593H63.494c-5.843 0-10.593-4.75-10.593-10.593v-201.075c0-5.843 4.75-10.592 10.593-10.592zm0 0" transform="translate(0 26.878) scale(.12501)" fill="url(#g)" stroke-width="3" stroke-linecap="round" stroke-linejoin="round" stroke="#212121"/><path d="M275.161-115.76H444.49c5.843 0 10.593 4.75 10.593 10.593V95.908c0 5.843-4.75 10.593-10.593 10.593H275.16c-5.843 0-10.593-4.75-10.593-10.593v-201.075c0-5.843 4.75-10.592 10.593-10.592zm0 0" transform="translate(0 26.878) scale(.12501)" fill="url(#h)" stroke-width="3" stroke-linecap="round" stroke-linejoin="round" stroke="#212121"/><path d="M63.494 127.655h380.995c5.843 0 10.593 4.75 10.593 10.593v63.493c0 5.844-4.75 10.593-10.593 10.593H63.494c-5.843 0-10.593-4.75-10.593-10.593v-63.493c0-5.844 4.75-10.593 10.593-10.593zm0 0" transform="translate(0 26.878) scale(.12501)" fill="url(#i)" stroke-width="3" stroke-linecap="round" stroke-linejoin="round" stroke="#212121"/><path d="M84.68-84.013h126.987c5.843 0 10.593 4.75 10.593 10.593s-4.75 10.593-10.593 10.593H84.68c-5.843 0-10.592-4.75-10.592-10.593s4.75-10.593 10.592-10.593zm0 0" transform="translate(0 26.878) scale(.12501)" fill="url(#j)" stroke-width="3" stroke-linecap="round" stroke-linejoin="round" stroke="#212121"/><path d="M84.68-31.08h126.987c5.843 0 10.593 4.75 10.593 10.593s-4.75 10.561-10.593 10.561H84.68c-5.843 0-10.592-4.718-10.592-10.561 0-5.844 4.75-10.593 10.592-10.593zm0 0" transform="translate(0 26.878) scale(.12501)" fill="url(#k)" stroke-width="3" stroke-linecap="round" stroke-linejoin="round" stroke="#212121"/><path d="M296.347-84.013h126.988c5.843 0 10.592 4.75 10.592 10.593s-4.75 10.593-10.592 10.593H296.347c-5.843 0-10.593-4.75-10.593-10.593s4.75-10.593 10.593-10.593zm0 0" transform="translate(0 26.878) scale(.12501)" fill="url(#l)" stroke-width="3" stroke-linecap="round" stroke-linejoin="round" stroke="#212121"/><path d="M296.347-31.08h126.988c5.843 0 10.592 4.75 10.592 10.593s-4.75 10.561-10.592 10.561H296.347c-5.843 0-10.593-4.718-10.593-10.561 0-5.844 4.75-10.593 10.593-10.593zm0 0" transform="translate(0 26.878) scale(.12501)" fill="url(#m)" stroke-width="3" stroke-linecap="round" stroke-linejoin="round" stroke="#212121"/><path d="M84.68 21.821h126.987c5.843 0 10.593 4.75 10.593 10.593s-4.75 10.593-10.593 10.593H84.68c-5.843 0-10.592-4.75-10.592-10.593s4.75-10.593 10.592-10.593zm0 0" transform="translate(0 26.878) scale(.12501)" fill="url(#n)" stroke-width="3" stroke-linecap="round" stroke-linejoin="round" stroke="#212121"/><path d="M296.347 21.821h126.988c5.843 0 10.592 4.75 10.592 10.593s-4.75 10.593-10.592 10.593H296.347c-5.843 0-10.593-4.75-10.593-10.593s4.75-10.593 10.593-10.593zm0 0" transform="translate(0 26.878) scale(.12501)" fill="url(#o)" stroke-width="3" stroke-linecap="round" stroke-linejoin="round" stroke="#212121"/><path d="M87.773 192.461c4.124 4.125 10.811 4.125 14.967 0l14.968-14.967c4.124-4.156 4.124-10.843 0-14.968L102.74 147.56c-4.156-4.156-10.843-4.156-14.967 0-4.156 4.125-4.156 10.812 0 14.967l7.468 7.468-7.468 7.5c-4.156 4.124-4.156 10.811 0 14.967zm0 0" transform="translate(0 26.878) scale(.12501)" fill="url(#p)" stroke-width="3" stroke-linecap="round" stroke-linejoin="round" stroke="#212121"/></svg>
